X: 1
T: The Narrow Gauge
R: reel
M: 4/4
L: 1/8
K: Gmin
|:BGGF GFDC|DGGF GABc|dg g2 fgag|fdcB AFAc|
BGGF GFDC|DGGF GABc|dg g2 (3agf dc|BdcA BG G2:|
|:B2 Bc dBfB|gdfd cBGA|B2 dB fBdf|gfdc BGGA|
B2 Bc dBfB|dcBc dg g2|bg (3 agf gfdc|BdcA BG G2:|

composer: Vincent Broderick
